!!!COM: Music21
!!!OTL: Pasacorredoiras de Ribadavia
!!!OMV: pezas_pasacorredoiras_pasacorredoiras-de-ribadavia_pasacorredoiras-de-ribadavia-partitura.musicxml
**kern
*I"Bagpipes
*I'Bag
*clefG^2
*k[]
*M2/4
=1
!LO:TX:a:t=Andante
*MM96
!LO:TX:a:t=[quarter]=96
4r
16cccLL
16bb
16ccc
16bbJJ
=||
8.aaL
16ggJk
16cccLL
16bb
16ccc
16bbJJ
=
8.aaL
16ggJk
16aaLL
16gg
16aa
16ggJJ
=
16ffLL
16ee
16dd
16eeJJ
16ggLL
16ff
16ee
16ddJJ
=
8eeL
8ccJ
16cccLL
16bb
16ccc
16bbJJ
=
8.aaL
16ggJk
16cccLL
16bb
16ccc
16bbJJ
=
8.aaL
16ggJk
16aaLL
16gg
16ff
16eeJJ
!!linebreak:original
=
16ddLL
16cc
16dd
16eeJJ
16ggLL
16ff
16ee
16ddJJ
=
4cc
16cccLL
16bb
16ccc
16bbJJ
=||
8.aaL
16ggJk
16cccLL
16bb
16ccc
16bbJJ
=
8.aaL
16ggJk
16aaLL
16gg
16aa
16ggJJ
=
16ffLL
16ee
16dd
16eeJJ
16ggLL
16ff
16ee
16ddJJ
=
8eeL
8ccJ
16cccLL
16bb
16ccc
16bbJJ
=
8.aaL
16ggJk
16cccLL
16bb
16ccc
16bbJJ
!!linebreak:original
=
8.aaL
16ggJk
16aaLL
16gg
16ff
16eeJJ
!!linebreak:original
=
16ddLL
16cc
16dd
16eeJJ
16ggLL
16ff
16ee
16ddJJ
=
4cc
16ddLL
16cc
16dd
16ffJJ
=||
8.eeL
16ggJk
16ffLL
16ee
16ff
16aaJJ
=
8ggL
8eeJ
16ddLL
16cc
16dd
16ffJJ
=
8.eeL
16ggJk
16aaLL
16gg
16ff
16ddJJ
=
8.eeL
16ccJk
16ddLL
16cc
16dd
16ffJJ
!!linebreak:original
=
8.eeL
16ggJk
16ffLL
16ee
16ff
16aaJJ
=
8ggL
8eeJ
16ddLL
16cc
16dd
16ffJJ
=
8.eeL
16ggJk
16aaLL
16gg
16ff
16ddJJ
=
4cc
16ddLL
16cc
16dd
16ffJJ
=||
8.eeL
16ggJk
16ffLL
16ee
16ff
16aaJJ
=
8ggL
8eeJ
16ddLL
16cc
16dd
16ffJJ
=
8.eeL
16ggJk
16aaLL
16gg
16ff
16ddJJ
!!linebreak:original
=
8.eeL
16ccJk
16ddLL
16cc
16dd
16ffJJ
!!linebreak:original
=
8.eeL
16ggJk
16ffLL
16ee
16ff
16aaJJ
=
8ggL
8eeJ
16ddLL
16cc
16dd
16ffJJ
=
8.eeL
16ggJk
16aaLL
16gg
16ff
16ddJJ
=||
4cc
16cccLL
16bb
16ccc
16bbJJ
=||
4.cc
8r
==
*-
